img/icons/location/street-sign.svg

<svg xmlns="http://www.w3.org/2000/svg" viewBox="0 0 42 48"><g data-name="Layer 2"><path data-name="Street Sign" d="M42 30l-7.11-7H22v-4h12V5H22V0h-2v5H7.11L0 12l7.11 7H20v4H8v14h12v11h2V37h12.89zM3 12l4.89-5H32v10H7.89zm7 23V25h24.11l4.94 5-4.94 5z" fill="#231f20"/></g></svg>

<svg xmlns="http://www.w3.org/2000/svg" viewBox="0 0 42 48"><defs><style>.cls-1{fill:#231f20;}</style></defs><title>Street Sign</title><g id="Layer_2" data-name="Layer 2"><g id="Icons"><g id="Location"><path id="Street_Sign" data-name="Street Sign" class="cls-1" d="M42,30l-7.11-7H22V19H34V5H22V0H20V5H7.11L0,12l7.11,7H20v4H8V37H20V48h2V37H34.89ZM3,12,7.89,7H32V17H7.89ZM10,35V25H34.11l4.94,5-4.94,5Z"/></g></g></g></svg>
